X:149
T:Alph. Carriere's Favorite Jig
T:Ornamentation from Andy De Jarlis, Canadian Old Time Music, London EBX 4123
C:Andy De Jarlis
M:6/8
L:1/8
Z:<http://tunes.nhcountrydance.com>.
K:A
|"A" A,CE A,CE |"A" A,CE c2 c |"A" {d}cBA ((3f/2g/2f/2)ec  |"E7" (c[e2e2]) [e3e3]  |
|"E7" EGB EGB  |"E7" EGB g2f  |"E7" {g}fec ecB |1"A" ([FA]>[GA][AA]) [A2A2] A,:|2"A" ([FA]>[GA][AA]) [A2A2] |]
((3e/2f/2g/2) \
|"A" a2 c {d}cBA |"F#7"     f2 d "B7" B3   |"E7" g2 f {g}fec |"A" ecB (A/2B/2c/2d/2)((3e/2f/2g/2) |
|"A" a2 c {d}cBA |"F#7"     f2 d "B7" B3   |"E7" g2 f {g}fec |1"A" ecB A2 :|2"A"ecB A2 A, |]

